packages/appstore/src/assets/svgs/trading-platform/branding/ic-branding-deriv-logo.svg

<svg width="104" height="35" viewBox="0 0 104 35" fill="none" xmlns="http://www.w3.org/2000/svg"><g clip-path="url(#clip0_34589_443010)"><path d="M20.8344 1.08848L19.0539 11.1817H12.8736C7.10769 11.1817 1.61187 15.8514 0.593256 21.615L0.162107 24.0683C-0.851762 29.832 2.99529 34.5018 8.76118 34.5018H13.9159C18.1183 34.5018 22.1217 31.1012 22.8608 26.9005L27.608 0L20.8344 1.08848ZM16.4491 25.9485C16.2216 27.2461 15.0529 28.3024 13.7548 28.3024H10.6231C8.03157 28.3024 6.29755 26.1994 6.75235 23.6041L7.02242 22.0744C7.48197 19.4838 9.95509 17.3763 12.5467 17.3763H17.9612L16.4491 25.9485ZM68.4316 34.5012L72.4871 11.5032H78.902L74.8465 34.5012H68.4316ZM69.1254 11.7684C68.8039 13.5925 68.481 15.4167 68.1594 17.2409C65.1203 16.2968 61.9848 16.5975 61.0214 16.7895C59.9811 22.6948 58.9394 28.6016 57.8976 34.5069H51.4785C52.3502 29.5658 55.3282 12.6912 55.3282 12.6912C57.416 11.8269 62.5431 10.073 69.1254 11.7684ZM43.1158 11.1778H38.1223C33.2566 11.1778 28.6185 15.1181 27.7608 19.9819L26.7517 25.6983C25.8941 30.5621 29.1396 34.5025 34.0053 34.5025H44.6274L45.7171 28.3221H35.7344C34.1142 28.3221 33.0292 27.0101 33.3183 25.3857L33.3515 25.1915H49.4457L50.3648 19.9819C51.2222 15.1181 47.9769 11.1778 43.1112 11.1778H43.1158ZM43.9261 19.4894L43.8882 19.8209H34.318L34.3701 19.5273C34.659 17.9076 36.1373 16.482 37.7622 16.482H41.5003C43.1065 16.482 44.1915 17.8839 43.9261 19.4894ZM97.512 11.5032H103.932C101.745 17.315 96.7332 27.2014 91.8786 34.5012H85.459C83.2306 27.5535 81.7917 17.8731 81.5171 11.5032H87.9369C88.0527 13.581 88.9833 21.2882 90.0453 26.6724C92.9579 21.4343 96.1691 14.5619 97.5071 11.5032H97.512Z" fill="#FF444F"/></g><defs><clipPath id="clip0_34589_443010"><rect width="104" height="34.5069" fill="white"/></clipPath></defs></svg>

<svg xmlns="http://www.w3.org/2000/svg" width="104" height="35" fill="none" viewBox="0 -5 114 45"><g clip-path="url(#a)"><path fill="#FF444F" d="m20.834 1.088-1.78 10.094h-6.18c-5.766 0-11.262 4.67-12.28 10.433l-.432 2.453c-1.014 5.764 2.833 10.434 8.6 10.434h5.154c4.202 0 8.206-3.4 8.945-7.602L27.608 0l-6.774 1.088Zm-4.385 24.86c-.227 1.298-1.396 2.354-2.694 2.354h-3.132c-2.591 0-4.325-2.103-3.87-4.698l.27-1.53c.459-2.59 2.932-4.698 5.524-4.698h5.414l-1.512 8.572Zm51.983 8.553 4.055-22.998h6.415l-4.055 22.998h-6.415Zm.693-22.733-.966 5.473c-3.039-.944-6.174-.643-7.138-.451l-3.123 17.717h-6.42l3.85-21.816c2.088-.864 7.215-2.618 13.797-.923Zm-26.01-.59h-4.993c-4.865 0-9.503 3.94-10.361 8.804l-1.01 5.716c-.857 4.864 2.389 8.804 7.254 8.804h10.622l1.09-6.18h-9.983c-1.62 0-2.705-1.312-2.416-2.936l.034-.194h16.094l.919-5.21c.857-4.864-2.388-8.804-7.254-8.804h.005Zm.811 8.311-.038.332h-9.57l.052-.294c.289-1.62 1.767-3.045 3.392-3.045H41.5c1.606 0 2.691 1.402 2.426 3.007Zm53.586-7.986h6.42c-2.187 5.812-7.199 15.698-12.053 22.998h-6.42c-2.228-6.947-3.667-16.628-3.942-22.998h6.42c.116 2.078 1.046 9.785 2.108 15.17 2.913-5.239 6.124-12.111 7.462-15.17h.005Z"/></g><defs><clipPath id="a"><path fill="#fff" d="M0 0h104v34.507H0z"/></clipPath></defs></svg>
